src/app/components/images/Position_marker_6.svg

<svg width="43" height="43" fill="none" xmlns="http://www.w3.org/2000/svg"><mask id="a" style="mask-type:alpha" maskUnits="userSpaceOnUse" x="4" y="4" width="35" height="35"><circle cx="21.5" cy="21.5" r="17.5" fill="#AB4F27"/></mask><g mask="url(#a)"><path fill="#E9ED31" d="M-17.724-9.276H65.15v63.965h-82.874z"/><path d="M44.62 4C28.188 39.505 16.87 42.223-7.939 9.36l3.514 34.462 52.56-5.36L44.62 4z" fill="#DADE16"/></g><path d="M18.888 22.688c0 1.168.272 2.08.816 2.736.56.656 1.32.984 2.28.984.704 0 1.312-.232 1.824-.696.512-.464.768-1.064.768-1.8 0-1.632-1.264-2.448-3.792-2.448-.656 0-1.272.088-1.848.264-.032.384-.048.704-.048.96zm7.08-7.392a15.838 15.838 0 0 0-.888-.048c-1.296 0-2.44.36-3.432 1.08-.992.72-1.68 1.616-2.064 2.688.48-.112 1.08-.168 1.8-.168 1.968 0 3.512.432 4.632 1.296 1.12.864 1.68 1.992 1.68 3.384 0 .96-.184 1.816-.552 2.568-.352.736-.816 1.32-1.392 1.752-1.184.848-2.488 1.272-3.912 1.272-.976 0-1.848-.168-2.616-.504-.752-.336-1.344-.744-1.776-1.224a6.362 6.362 0 0 1-1.056-1.704c-.448-1.056-.672-2.072-.672-3.048 0-.992.112-1.928.336-2.808.224-.896.584-1.776 1.08-2.64a10.153 10.153 0 0 1 1.8-2.304c.704-.672 1.576-1.208 2.616-1.608 1.04-.416 2.176-.624 3.408-.624.256 0 .4.016.432.048.416.544.624 1.36.624 2.448 0 .096-.016.144-.048.144z" fill="#000"/><g filter="url(#b)"><circle cx="21.5" cy="21.5" r="16.5" stroke="#C8CA53" stroke-width="2"/></g><defs><filter id="b" x="0" y="0" width="43" height="43" filterUnits="userSpaceOnUse" color-interpolation-filters="sRGB"><feFlood flood-opacity="0" result="BackgroundImageFix"/><feBlend in="SourceGraphic" in2="BackgroundImageFix" result="shape"/><feGaussianBlur stdDeviation="2" result="effect1_foregroundBlur_44_496"/></filter></defs></svg>

<svg width="43" height="43" viewBox="0 0 43 43" fill="none" xmlns="http://www.w3.org/2000/svg">
<mask id="mask0_44_496" style="mask-type:alpha" maskUnits="userSpaceOnUse" x="4" y="4" width="35" height="35">
<circle cx="21.5" cy="21.5" r="17.5" fill="#AB4F27"/>
</mask>
<g mask="url(#mask0_44_496)">
<rect x="-17.7241" y="-9.27586" width="82.8736" height="63.9655" fill="#E9ED31"/>
<path d="M44.6204 3.99999C28.1879 39.5046 16.8689 42.2229 -7.93866 9.3595L-4.42453 43.8216L48.1346 38.4621L44.6204 3.99999Z" fill="#DADE16"/>
</g>
<path d="M18.888 22.688C18.888 23.856 19.16 24.768 19.704 25.424C20.264 26.08 21.024 26.408 21.984 26.408C22.688 26.408 23.296 26.176 23.808 25.712C24.32 25.248 24.576 24.648 24.576 23.912C24.576 22.28 23.312 21.464 20.784 21.464C20.128 21.464 19.512 21.552 18.936 21.728C18.904 22.112 18.888 22.432 18.888 22.688ZM25.968 15.296C25.52 15.264 25.224 15.248 25.08 15.248C23.784 15.248 22.64 15.608 21.648 16.328C20.656 17.048 19.968 17.944 19.584 19.016C20.064 18.904 20.664 18.848 21.384 18.848C23.352 18.848 24.896 19.28 26.016 20.144C27.136 21.008 27.696 22.136 27.696 23.528C27.696 24.488 27.512 25.344 27.144 26.096C26.792 26.832 26.328 27.416 25.752 27.848C24.568 28.696 23.264 29.12 21.84 29.12C20.864 29.12 19.992 28.952 19.224 28.616C18.472 28.28 17.88 27.872 17.448 27.392C17.016 26.896 16.664 26.328 16.392 25.688C15.944 24.632 15.72 23.616 15.72 22.64C15.72 21.648 15.832 20.712 16.056 19.832C16.28 18.936 16.64 18.056 17.136 17.192C17.632 16.328 18.232 15.56 18.936 14.888C19.64 14.216 20.512 13.68 21.552 13.28C22.592 12.864 23.728 12.656 24.96 12.656C25.216 12.656 25.36 12.672 25.392 12.704C25.808 13.248 26.016 14.064 26.016 15.152C26.016 15.248 26 15.296 25.968 15.296Z" fill="black"/>
<g filter="url(#filter0_f_44_496)">
<circle cx="21.5" cy="21.5" r="16.5" stroke="#C8CA53" stroke-width="2"/>
</g>
<defs>
<filter id="filter0_f_44_496" x="0" y="0" width="43" height="43" filterUnits="userSpaceOnUse" color-interpolation-filters="sRGB">
<feFlood flood-opacity="0" result="BackgroundImageFix"/>
<feBlend mode="normal" in="SourceGraphic" in2="BackgroundImageFix" result="shape"/>
<feGaussianBlur stdDeviation="2" result="effect1_foregroundBlur_44_496"/>
</filter>
</defs>
</svg>
